static/images/crex24-logo.svg

<svg height="74" viewBox="0 0 74 74" width="74" xmlns="http://www.w3.org/2000/svg"><path d="m73.8030303 34.2171717v4.3434344c-.0303899.1158702-.050668.234159-.0606061.3535353-.0696445 1.4040951-.2384149 2.8015143-.5050505 4.1818182-2.0909091 10.5656566-7.6632996 18.7727273-16.7171717 24.6212121-4.4835448 2.8809834-9.558816 4.7142956-14.8484848 5.3636364-.8888889.1161616-1.7777778.1969697-2.6717172.2929293h-4.3434343c-.1032761-.0255252-.2077896-.0457537-.3131314-.0606061-2.762118-.1582875-5.4953624-.6466091-8.1414141-1.4545454-8.7910387-2.6206901-16.28936187-8.4245075-21.03030303-16.2777778-.07070707-.1161616-.2020202-.2222222-.15151515-.3888889.03030303 0 .06060606-.0252525.08080808 0 .1010101.030303.2020202.0656566.3030303.1060606 1.12159133.4762193 2.28707237.841595 3.47979798 1.0909091 1.01010101.1868687 2.06060602.3737374 3.09595962.5050505 1.3388788.2065915 2.7015252.2065915 4.040404 0 1.9751282-.3791148 3.9960293-.4591336 5.9949495-.2373737l.6010101.050505c.2166633.0438051.4399024.0438051.6565657 0-.0510871-.0350077-.1051698-.0654292-.1616162-.0909091-2.114976-.7539425-4.3590914-1.078455-6.6010101-.9545454-.4269765.0329018-.8558517.0329018-1.2828283 0-1.8546197-.1692255-3.6149337-.8944749-5.050505-2.0808081-2.19073104-1.7167959-4.10376173-3.7609961-5.67171719-6.0606061-1.73737374-2.5252525-2.6969697-5.3383838-3.3989899-8.2777778-.30808081-1.2929293-.50505051-2.6060606-.71212122-3.9090909v-.5555555c.0909091.1969697.1919192.3838384.26767677.5808081.5290774 1.4239327 1.28833204 2.7513487 2.24747475 3.9292929 1.05050505 1.2424242 2.32828283 2.020202 4.04040404 1.9949495.13396931.0009278.26755435.0144554.3989899.040404 1.91825202.3090579 3.78662585.8729671 5.55555555 1.6767677.9090909.3838384 1.8030303.8030303 2.7525253 1.2272727-.1053117-.1425591-.2440663-.2570317-.4040404-.3333333-3.1363331-2.0419191-5.9921932-4.4851906-8.49494954-7.2676768-2.16514516-2.4080303-3.32231692-5.5558991-3.23232323-8.7929293.03772042-2.829756.44175397-5.6427123 1.2020202-8.3686868.01773567-.1610443.11165599-.3038031.25252525-.3838384.97474747 9.2020202 5.87878792 15.5151515 14.14141412 19.4747475-.0212133-.1371476-.0979264-.2595233-.2121212-.3383839-1.9646056-1.9105199-3.7702452-3.9779688-5.3989899-6.1818182-2.8787879-3.8989899-4.32323231-8.2222222-3.88383837-13.0959596.31995787-3.4861144 1.46422007-6.8461946 3.33838387-9.80303026.0454545-.06565657.070707-.18181819.2272727-.13131313v.35353535c-.0857669 1.85317104-.0334337 3.71015604.1565656 5.55555554.1550869 1.9800639.6684665 3.9155051 1.5151516 5.7121212 1.5203283 2.7477649 3.4440718 5.2520364 5.7070707 7.429293.0403505.0349679.0843797.0654497.1313131.090909.0353535-.1616161-.0606061-.2525252-.1161616-.3535353-1.4299147-2.5530593-2.6331773-5.2266006-3.5959596-7.989899-.7872428-2.1637442-1.030069-4.4879373-.7070707-6.7676768.5640859-3.47267962 2.0738535-6.72287378 4.3636363-9.39393936.1717172-.21717172.3585859-.41414141.5505051-.63131313.0615239.07861991.0615239.18905686 0 .26767677-.7753939 1.72933827-1.2125548 3.59112917-1.2878788 5.48484848-.1790377 3.31329604.229619 6.63213564 1.2070707 9.80303034.3733454 1.4770268 1.0625877 2.8555116 2.020202 4.040404.1040105.1751569.2669113.3076257.459596.3737374.0036641-.0639206.0036641-.1279986 0-.1919192-.491002-2.7046019-.6706236-5.456541-.5353535-8.2020202.1144189-2.4814708.6613569-4.92389092 1.6161616-7.21717173.6933966-1.73797092 1.7931177-3.28450781 3.2070707-4.51010101 1.4001111-1.20108106 3.0570802-2.06498569 4.8434343-2.52525253h.7272728c-.4857015.25811975-.9516219.55185221-1.3939394.87878788-1.6957832 1.3514487-3.0071506 3.12431981-3.8030303 5.14141414-.9012164 2.24241017-1.403721 4.62503395-1.4848485 7.04040405-.1916284 3.0414105-.0067259 6.0948462.550505 9.0909091 1.0687771 5.4388528 3.8850161 10.3796853 8.020202 14.0707071 2.5011051 2.4428694 6.0703768 3.4507085 9.479798 2.6767676 1.3475567-.2076868 2.6018951-.8146247 3.6010101-1.7424242.3181818-.3232323.6565657-.7171717.459596-1.2020202s-.7272727-.4090909-1.1616162-.469697c-.2676767-.040404-.6868687.2121212-.7676767-.030303-.0808081-.2424243.3030303-.5050505.5050505-.7020202 1.6329417-1.6400014 3.3543683-3.189454 5.1565656-4.6414142 1.0653243-.9277326 1.8989629-2.0917135 2.4343435-3.3989899.1868686-.3989899.0454545-.5858585-.3636364-.5050505-.3232323.0707071-.3383839-.0555555-.2979798-.3131313.060606-.4090909.1111111-.8181818.1515151-1.2323232.1004298-.558756.0281978-1.1348497-.2070707-1.6515152-.7542421-1.4708934-2.1726738-2.4867464-3.8080808-2.7272727-1.008635-.0979118-2.0250585-.0826655-3.030303.0454546-1.3787879.070707-2.7525253.1818181-4.1262626.2676767-.429293.0252526-.5050505-.0454545-.3787879-.4141414.4876314-1.8627248 1.4539472-3.5655298 2.8030303-4.9393939.4646465-.4444445.9141414-.9090909 1.3535353-1.3737374.2266501-.1922611.3917496-.4469359.4747475-.7323232.2743961-1.5442324 1.2399672-2.8781716 2.6212121-3.62121215 1.370165-.77259974 2.8954179-1.22983054 4.4646465-1.33838384 4.2323232-.43939394 7.6111111 1.26767677 10.520202 4.16161619 4.4688123 5.3338534 7.3276064 11.8292017 8.2424243 18.7272727.1515151.9545455.2272727 1.8888889.3333333 2.8181818z" fill="#1aa2a0"/></svg>

<?xml version="1.0" encoding="UTF-8"?>
<svg width="74px" height="74px" viewBox="0 0 74 74" version="1.1" xmlns="http://www.w3.org/2000/svg" xmlns:xlink="http://www.w3.org/1999/xlink">
    <!-- Generator: Sketch 63.1 (92452) - https://sketch.com -->
    <title>crex24-logo</title>
    <desc>Created with Sketch.</desc>
    <g id="Page-1" stroke="none" stroke-width="1" fill="none" fill-rule="evenodd">
        <g id="crex24-logo" fill="#1AA2A0" fill-rule="nonzero">
            <path d="M73.8030303,34.2171717 L73.8030303,38.5606061 C73.7726404,38.6764763 73.7523623,38.7947651 73.7424242,38.9141414 C73.6727797,40.3182365 73.5040093,41.7156557 73.2373737,43.0959596 C71.1464646,53.6616162 65.5740741,61.8686869 56.520202,67.7171717 C52.0366572,70.5981551 46.961386,72.4314673 41.6717172,73.0808081 C40.7828283,73.1969697 39.8939394,73.2777778 39,73.3737374 L34.6565657,73.3737374 C34.5532896,73.3482122 34.4487761,73.3279837 34.3434343,73.3131313 C31.5813163,73.1548438 28.8480719,72.6665222 26.2020202,71.8585859 C17.4109815,69.2378958 9.91265833,63.4340784 5.17171717,55.5808081 C5.1010101,55.4646465 4.96969697,55.3585859 5.02020202,55.1919192 C5.05050505,55.1919192 5.08080808,55.1666667 5.1010101,55.1919192 C5.2020202,55.2222222 5.3030303,55.2575758 5.4040404,55.2979798 C6.52563173,55.7741991 7.69111277,56.1395748 8.88383838,56.3888889 C9.89393939,56.5757576 10.9444444,56.7626263 11.979798,56.8939394 C13.3186768,57.1005309 14.6813232,57.1005309 16.020202,56.8939394 C17.9953302,56.5148246 20.0162313,56.4348058 22.0151515,56.6565657 L22.6161616,56.7070707 C22.8328249,56.7508758 23.056064,56.7508758 23.2727273,56.7070707 C23.2216402,56.672063 23.1675575,56.6416415 23.1111111,56.6161616 C20.9961351,55.8622191 18.7520197,55.5377066 16.510101,55.6616162 C16.0831245,55.694518 15.6542493,55.694518 15.2272727,55.6616162 C13.372653,55.4923907 11.612339,54.7671413 10.1767677,53.5808081 C7.98603666,51.8640122 6.07300597,49.819812 4.50505051,47.520202 C2.76767677,44.9949495 1.80808081,42.1818182 1.10606061,39.2424242 C0.797979798,37.9494949 0.601010101,36.6363636 0.393939394,35.3333333 L0.393939394,34.7777778 C0.484848485,34.9747475 0.585858586,35.1616162 0.661616162,35.3585859 C1.19069356,36.7825186 1.9499482,38.1099346 2.90909091,39.2878788 C3.95959596,40.530303 5.23737374,41.3080808 6.94949495,41.2828283 C7.08346426,41.2837561 7.2170493,41.2972837 7.34848485,41.3232323 C9.26673687,41.6322902 11.1351107,42.1961994 12.9040404,43 C13.8131313,43.3838384 14.7070707,43.8030303 15.6565657,44.2272727 C15.551254,44.0847136 15.4124994,43.970241 15.2525253,43.8939394 C12.1161922,41.8520203 9.2603321,39.4087488 6.75757576,36.6262626 C4.5924306,34.2182323 3.43525884,31.0703635 3.52525253,27.8333333 C3.56297295,25.0035773 3.9670065,22.190621 4.72727273,19.4646465 C4.7450084,19.3036022 4.83892872,19.1608434 4.97979798,19.0808081 C5.95454545,28.2828283 10.8585859,34.5959596 19.1212121,38.5555556 C19.0999988,38.418408 19.0232857,38.2960323 18.9090909,38.2171717 C16.9444853,36.3066518 15.1388457,34.2392029 13.510101,32.0353535 C10.6313131,28.1363636 9.18686869,23.8131313 9.62626263,18.9393939 C9.9462205,15.4532795 11.0904827,12.0931993 12.9646465,9.13636364 C13.010101,9.07070707 13.0353535,8.95454545 13.1919192,9.00505051 L13.1919192,9.35858586 C13.1061523,11.2117569 13.1584855,13.0687419 13.3484848,14.9141414 C13.5035717,16.8942053 14.0169513,18.8296465 14.8636364,20.6262626 C16.3839647,23.3740275 18.3077082,25.878299 20.5707071,28.0555556 C20.6110576,28.0905235 20.6550868,28.1210053 20.7020202,28.1464646 C20.7373737,27.9848485 20.6414141,27.8939394 20.5858586,27.7929293 C19.1559439,25.23987 17.9526813,22.5663287 16.989899,19.8030303 C16.2026562,17.6392861 15.95983,15.315093 16.2828283,13.0353535 C16.8469142,9.56267388 18.3566818,6.31247972 20.6464646,3.64141414 C20.8181818,3.42424242 21.0050505,3.22727273 21.1969697,3.01010101 C21.2584936,3.08872092 21.2584936,3.19915787 21.1969697,3.27777778 C20.4215758,5.00711605 19.9844149,6.86890695 19.9090909,8.76262626 C19.7300532,12.0759223 20.1387099,15.3947619 21.1161616,18.5656566 C21.489507,20.0426834 22.1787493,21.4211682 23.1363636,22.6060606 C23.2403741,22.7812175 23.4032749,22.9136863 23.5959596,22.979798 C23.5996237,22.9158774 23.5996237,22.8517994 23.5959596,22.7878788 C23.1049576,20.0832769 22.925336,17.3313378 23.0606061,14.5858586 C23.175025,12.1043878 23.721963,9.66196768 24.6767677,7.36868687 C25.3701643,5.63071595 26.4698854,4.08417906 27.8838384,2.85858586 C29.2839495,1.6575048 30.9409186,0.793600172 32.7272727,0.333333333 L33.4545455,0.333333333 C32.968844,0.591453075 32.5029236,0.885185535 32.0606061,1.21212121 C30.3648229,2.56356991 29.0534555,4.33644102 28.2575758,6.35353535 C27.3563594,8.59594552 26.8538548,10.9785693 26.7727273,13.3939394 C26.5810989,16.4353499 26.7660014,19.4887856 27.3232323,22.4848485 C28.3920094,27.9237013 31.2082484,32.8645338 35.3434343,36.5555556 C37.8445394,38.998425 41.4138111,40.0062641 44.8232323,39.2323232 C46.170789,39.0246364 47.4251274,38.4176985 48.4242424,37.489899 C48.7424242,37.1666667 49.0808081,36.7727273 48.8838384,36.2878788 C48.6868687,35.8030303 48.1565657,35.8787879 47.7222222,35.8181818 C47.4545455,35.7777778 47.0353535,36.030303 46.9545455,35.7878788 C46.8737374,35.5454545 47.2575758,35.2828283 47.459596,35.0858586 C49.0925377,33.4458572 50.8139643,31.8964046 52.6161616,30.4444444 C53.6814859,29.5167118 54.5151245,28.3527309 55.0505051,27.0454545 C55.2373737,26.6464646 55.0959596,26.459596 54.6868687,26.540404 C54.3636364,26.6111111 54.3484848,26.4848485 54.3888889,26.2272727 C54.4494949,25.8181818 54.5,25.4090909 54.540404,24.9949495 C54.6408338,24.4361935 54.5686018,23.8600998 54.3333333,23.3434343 C53.5790912,21.8725409 52.1606595,20.8566879 50.5252525,20.6161616 C49.5166175,20.5182498 48.500194,20.5334961 47.4949495,20.6616162 C46.1161616,20.7323232 44.7424242,20.8434343 43.3686869,20.9292929 C42.9393939,20.9545455 42.8636364,20.8838384 42.989899,20.5151515 C43.4775304,18.6524267 44.4438462,16.9496217 45.7929293,15.5757576 C46.2575758,15.1313131 46.7070707,14.6666667 47.1464646,14.2020202 C47.3731147,14.0097591 47.5382142,13.7550843 47.6212121,13.469697 C47.8956082,11.9254646 48.8611793,10.5915254 50.2424242,9.84848485 C51.6125892,9.07588511 53.1378421,8.61865431 54.7070707,8.51010101 C58.9393939,8.07070707 62.3181818,9.77777778 65.2272727,12.6717172 C69.696085,18.0055706 72.5548791,24.5009189 73.469697,31.3989899 C73.6212121,32.3535354 73.6969697,33.2878788 73.8030303,34.2171717 L73.8030303,34.2171717 Z" id="Path"></path>
        </g>
    </g>
</svg>
